;Generated with Cura_SteamEngine 13.06.4
M140 S70.000000
M109 T0 S190.000000
T0
M190 S70.000000
;Sliced at: Sun 11 Aug 2013 14:15:39
;Basic settings: Layer height: 0.24 Walls: 0.5 Fill: 20
;Print time: #P_TIME#
;Filament used: #F_AMNT#m #F_WGHT#g
;Filament cost: #F_COST#
G21        ;metric values
G90        ;absolute positioning
M107       ;start with the fan off

G28 X0 Y0  ;move X/Y to min endstops
G28 Z0     ;move Z to min endstops

G1 Z15.0 F9000 ;move the platform down 15mm

G92 E0                  ;zero the extruded length
G1 F200 E3              ;extrude 3mm of feed stock
G92 E0                  ;zero the extruded length again
G1 F9000
M117 Printing...

;total_layers=27
;LAYER:0
M107
G0 F3600 X91.20 Y100.06 Z0.30
;TYPE:SKIRT
G1 F1200 X92.62 Y98.84 E0.04415
G1 X92.83 Y98.69 E0.05011
G1 X94.43 Y97.71 E0.09425
G1 X94.66 Y97.59 E0.10030
G1 X96.39 Y96.87 E0.14446
G1 X96.64 Y96.79 E0.15044
G1 X98.46 Y96.36 E0.19455
G1 X98.71 Y96.32 E0.20052
G1 X100.58 Y96.17 E0.24468
G1 X100.84 Y96.17 E0.25072
G1 X102.71 Y96.32 E0.29488
G1 X102.96 Y96.36 E0.30086
G1 X104.79 Y96.79 E0.34496
G1 X105.03 Y96.87 E0.35095
G1 X106.76 Y97.59 E0.39510
G1 X106.99 Y97.71 E0.40116
G1 X108.59 Y98.69 E0.44530
G1 X108.80 Y98.84 E0.45126
G1 X110.23 Y100.06 E0.49540
G1 X110.41 Y100.24 E0.50142
G1 X111.63 Y101.67 E0.54557
G1 X111.78 Y101.87 E0.55153
G1 X112.76 Y103.47 E0.59567
G1 X112.87 Y103.70 E0.60173
G1 X113.59 Y105.44 E0.64588
G1 X113.67 Y105.68 E0.65186
G1 X114.11 Y107.50 E0.69597
G1 X114.15 Y107.75 E0.70195
G1 X114.30 Y109.63 E0.74610
G1 X114.30 Y109.88 E0.75215
G1 X114.15 Y111.75 E0.79630
G1 X114.11 Y112.01 E0.80228
G1 X113.67 Y113.83 E0.84638
G1 X113.59 Y114.07 E0.85237
G1 X112.87 Y115.81 E0.89652
G1 X112.76 Y116.04 E0.90258
G1 X111.78 Y117.64 E0.94672
G1 X111.63 Y117.84 E0.95268
G1 X110.41 Y119.27 E0.99683
G1 X110.23 Y119.45 E1.00284
G1 X108.80 Y120.67 E1.04699
G1 X108.59 Y120.82 E1.05295
G1 X106.99 Y121.80 E1.09709
G1 X106.76 Y121.92 E1.10315
G1 X105.03 Y122.63 E1.14730
G1 X104.79 Y122.71 E1.15329
G1 X102.96 Y123.15 E1.19739
G1 X102.71 Y123.19 E1.20337
G1 X100.84 Y123.34 E1.24752
G1 X100.58 Y123.34 E1.25357
G1 X98.71 Y123.19 E1.29772
G1 X98.46 Y123.15 E1.30370
G1 X96.64 Y122.71 E1.34781
G1 X96.39 Y122.63 E1.35379
G1 X94.66 Y121.92 E1.39794
G1 X94.43 Y121.80 E1.40400
G1 X92.83 Y120.82 E1.44814
G1 X92.62 Y120.67 E1.45410
G1 X91.20 Y119.45 E1.49825
G1 X91.02 Y119.27 E1.50427
G1 X89.80 Y117.84 E1.54841
G1 X89.65 Y117.64 E1.55437
G1 X88.67 Y116.04 E1.59851
G1 X88.55 Y115.81 E1.60457
G1 X87.83 Y114.07 E1.64872
G1 X87.75 Y113.83 E1.65471
G1 X87.31 Y112.01 E1.69882
G1 X87.27 Y111.75 E1.70479
G1 X87.13 Y109.88 E1.74895
G1 X87.13 Y109.63 E1.75499
G1 X87.27 Y107.75 E1.79915
G1 X87.31 Y107.50 E1.80512
G1 X87.75 Y105.68 E1.84923
G1 X87.83 Y105.44 E1.85522
G1 X88.55 Y103.70 E1.89937
G1 X88.67 Y103.47 E1.90542
G1 X89.65 Y101.87 E1.94956
G1 X89.80 Y101.67 E1.95552
G1 X91.02 Y100.24 E1.99967
G1 X91.20 Y100.06 E2.00569
G1 F2400 E-2.49431
G0 F3600 X93.58 Y102.62
;TYPE:WALL-OUTER
G1 F2400 E2.00569
G1 F1200 X94.78 Y101.60 E2.04285
G1 X96.13 Y100.77 E2.08009
G1 X97.60 Y100.16 E2.11736
G1 X99.14 Y99.79 E2.15454
G1 X100.71 Y99.67 E2.19173
G1 X102.29 Y99.79 E2.22893
G1 X103.83 Y100.16 E2.26610
G1 X105.29 Y100.77 E2.30337
G1 X106.64 Y101.60 E2.34061
G1 X107.84 Y102.62 E2.37777
G1 X108.87 Y103.83 E2.41493
G1 X109.70 Y105.18 E2.45217
G1 X110.30 Y106.64 E2.48945
G1 X110.67 Y108.18 E2.52662
G1 X110.80 Y109.75 E2.56381
G1 X110.67 Y111.33 E2.60101
G1 X110.30 Y112.87 E2.63818
G1 X109.70 Y114.33 E2.67546
G1 X108.87 Y115.68 E2.71269
G1 X107.84 Y116.89 E2.74985
G1 X106.64 Y117.91 E2.78701
G1 X105.29 Y118.74 E2.82425
G1 X103.83 Y119.35 E2.86153
G1 X102.29 Y119.72 E2.89870
G1 X100.71 Y119.84 E2.93589
G1 X99.14 Y119.72 E2.97309
G1 X97.60 Y119.35 E3.01026
G1 X96.13 Y118.74 E3.04754
G1 X94.78 Y117.91 E3.08478
G1 X93.58 Y116.89 E3.12194
G1 X92.56 Y115.68 E3.15909
G1 X91.73 Y114.33 E3.19633
G1 X91.12 Y112.87 E3.23361
G1 X90.75 Y111.33 E3.27078
G1 X90.63 Y109.75 E3.30798
G1 X90.75 Y108.18 E3.34517
G1 X91.12 Y106.64 E3.38234
G1 X91.73 Y105.18 E3.41962
G1 X92.56 Y103.83 E3.45686
G1 X93.58 Y102.62 E3.49402
G0 F3600 X93.69 Y102.75
G1 F1200 X92.69 Y103.93 E3.53056
G1 X91.87 Y105.26 E3.56716
G1 X91.28 Y106.70 E3.60376
G1 X90.92 Y108.21 E3.64034
G1 X90.80 Y109.74 E3.67645
G1 X90.80 Y109.76 E3.67690
G1 X90.92 Y111.31 E3.71348
G1 X91.29 Y112.83 E3.75005
G1 X91.88 Y114.26 E3.78664
G1 X92.70 Y115.59 E3.82323
G1 X93.71 Y116.77 E3.85980
G1 X94.89 Y117.78 E3.89634
G1 X96.22 Y118.59 E3.93294
G1 X97.66 Y119.19 E3.96954
G1 X99.17 Y119.55 E4.00612
G1 X100.70 Y119.67 E4.04223
G1 X100.72 Y119.67 E4.04268
G1 X102.27 Y119.54 E4.07926
G1 X103.78 Y119.18 E4.11583
G1 X105.22 Y118.58 E4.15242
G1 X106.55 Y117.77 E4.18900
G1 X107.73 Y116.76 E4.22557
G1 X108.74 Y115.57 E4.26211
G1 X109.55 Y114.25 E4.29871
G1 X110.14 Y112.81 E4.33532
G1 X110.51 Y111.29 E4.37190
G1 X110.62 Y109.76 E4.40801
G1 X110.62 Y109.74 E4.40845
G1 X110.50 Y108.19 E4.44503
G1 X110.14 Y106.68 E4.48161
G1 X109.54 Y105.24 E4.51820
G1 X108.73 Y103.92 E4.55478
G1 X107.71 Y102.74 E4.59135
G1 X106.53 Y101.73 E4.62789
G1 X105.20 Y100.92 E4.66449
G1 X103.77 Y100.32 E4.70110
G1 X102.25 Y99.96 E4.73768
G1 X100.72 Y99.84 E4.77378
G1 X100.70 Y99.84 E4.77423
G1 X99.15 Y99.96 E4.81081
G1 X97.64 Y100.33 E4.84739
G1 X96.20 Y100.93 E4.88397
G1 X94.88 Y101.74 E4.92056
G1 X93.69 Y102.75 E4.95713
G1 F2400 E0.45713
G0 F3600 X97.35 Y106.40
G1 F2400 E4.95713
G1 F1200 X97.92 Y105.91 E4.97461
G1 X98.06 Y105.83 E4.97849
G1 X98.91 Y108.71 E5.04922
G1 X96.42 Y110.56 E5.12210
G1 X96.53 Y110.90 E5.13054
G1 X99.58 Y110.95 E5.20210
G1 X100.49 Y114.00 E5.27686
G1 X100.86 Y114.00 E5.28553
G1 X101.84 Y110.98 E5.36019
G1 X104.88 Y111.01 E5.43172
G1 X105.00 Y110.67 E5.44014
G1 X102.56 Y108.76 E5.51307
G1 X103.48 Y105.90 E5.58379
G1 X104.07 Y106.40 E5.60203
G1 X104.55 Y106.96 E5.61951
G1 X104.94 Y107.60 E5.63707
G1 X105.23 Y108.29 E5.65463
G1 X105.40 Y109.01 E5.67212
G1 X105.46 Y109.75 E5.68964
G1 X105.40 Y110.50 E5.70716
G1 X105.23 Y111.22 E5.72465
G1 X104.94 Y111.91 E5.74216
G1 X104.51 Y112.60 E5.76142
G1 X104.01 Y113.16 E5.77908
G1 X103.51 Y113.60 E5.79469
G1 X102.87 Y113.99 E5.81225
G1 X102.18 Y114.27 E5.82981
G1 X101.46 Y114.44 E5.84730
G1 X100.71 Y114.50 E5.86482
G1 X99.97 Y114.44 E5.88234
G1 X99.25 Y114.27 E5.89983
G1 X98.56 Y113.99 E5.91734
G1 X97.87 Y113.55 E5.93660
G1 X97.30 Y113.05 E5.95426
G1 X96.87 Y112.55 E5.96987
G1 X96.48 Y111.91 E5.98743
G1 X96.19 Y111.22 E6.00499
G1 X96.02 Y110.50 E6.02248
G1 X95.96 Y109.75 E6.04000
G1 X96.02 Y109.01 E6.05752
G1 X96.19 Y108.29 E6.07501
G1 X96.48 Y107.60 E6.09257
G1 X96.87 Y106.96 E6.11013
G1 X97.35 Y106.40 E6.12761
G0 F3600 X98.47 Y105.58
G1 F1200 X98.56 Y105.52 E6.12995
G1 X99.25 Y105.24 E6.14752
G1 X99.97 Y105.06 E6.16500
G1 X100.71 Y105.01 E6.18253
G1 X101.46 Y105.06 E6.20005
G1 X102.18 Y105.24 E6.21753
G1 X102.87 Y105.52 E6.23510
G1 X103.06 Y105.64 E6.24048
G1 X100.75 Y107.35 E6.30802
G1 X98.47 Y105.58 E6.37597
G0 F3600 X98.90 Y105.57
;TYPE:FILL
G1 F1200 X99.45 Y106.12 E6.39426
G0 F3600 X99.42 Y105.37
G1 F1200 X100.99 Y106.95 E6.44666
G0 F3600 X101.40 Y106.65
G1 F1200 X99.99 Y105.24 E6.49368
G0 F3600 X100.64 Y105.18
G1 F1200 X101.81 Y106.35 E6.53245
G0 F3600 X102.22 Y106.05
G1 F1200 X101.40 Y105.23 E6.55964
G0 F3600 X102.38 Y105.51
G1 F1200 X102.62 Y105.75 E6.56759
G0 F3600 X103.44 Y106.57
G1 F1200 X104.95 Y108.08 E6.61786
G0 F3600 X105.23 Y109.07
G1 F1200 X103.27 Y107.11 E6.68309
G0 F3600 X103.10 Y107.64
G1 F1200 X105.28 Y109.82 E6.75563
G0 F3600 X105.23 Y110.48
G1 F1200 X102.93 Y108.18 E6.83209
G1 F2400 E2.33209
G0 F3600 X103.09 Y111.17
G1 F2400 E6.83209
G1 F1200 X104.38 Y112.46 E6.87516
G0 F3600 X104.06 Y112.84
G1 F1200 X102.37 Y111.16 E6.93115
G0 F3600 X101.89 Y111.38
G1 F1200 X103.70 Y113.19 E6.99137
G0 F3600 X103.31 Y113.51
G1 F1200 X101.72 Y111.92 E7.04425
G0 F3600 X101.54 Y112.45
G1 F1200 X102.87 Y113.78 E7.08832
G0 F3600 X102.38 Y113.99
G1 F1200 X101.37 Y112.98 E7.12192
G0 F3600 X101.20 Y113.52
G1 F1200 X101.55 Y114.23 E7.14356
G1 X100.75 Y114.13 E7.15129
G1 X100.45 Y114.19 E7.15834
G0 F3600 X100.32 Y114.06
G1 F1200 X97.36 Y111.09 E7.25704
G0 F3600 X96.64 Y111.08
G1 F1200 X99.78 Y114.22 E7.36142
G0 F3600 X98.71 Y113.86
G1 F1200 X96.61 Y111.76 E7.43125
G0 F3600 X96.53 Y110.26
G1 F1200 X96.15 Y109.88 E7.44392
G0 F3600 X96.18 Y109.21
G1 F1200 X96.93 Y109.96 E7.46902
G0 F3600 X97.34 Y109.66
G1 F1200 X96.29 Y108.61 E7.50377
G0 F3600 X96.47 Y108.08
G1 F1200 X97.74 Y109.36 E7.54622
G0 F3600 X98.15 Y109.06
G1 F1200 X96.69 Y107.59 E7.59487
G0 F3600 X96.95 Y107.15
G1 F1200 X98.56 Y108.76 E7.64809
G0 F3600 X98.52 Y108.02
G1 F1200 X97.27 Y106.76 E7.68984
G0 F3600 X97.61 Y106.40
G1 F1200 X98.23 Y107.01 E7.71022
G1 F2400 E3.21022
G0 F3600 X98.07 Y111.10
G1 F2400 E7.71022
G1 F1200 X100.02 Y113.05 E7.77496
G0 F3600 X99.72 Y112.04
G1 F1200 X98.79 Y111.11 E7.80582
G1 F2400 E3.30582
G0 F3600 X103.80 Y111.17
G1 F2400 E7.80582
G1 F1200 X104.66 Y112.03 E7.83425
G0 F3600 X104.90 Y111.56
G1 F1200 X104.52 Y111.18 E7.84686
G0 F3600 X104.52 Y111.36
;LAYER:1
M106 S255
G0 F4920 X104.88 Y111.01 Z0.54
;TYPE:WALL-OUTER
G1 F1620 X105.00 Y110.67 E7.85359
G1 X102.56 Y108.76 E7.91194
G1 X103.48 Y105.90 E7.96851
G1 X104.07 Y106.40 E7.98310
G1 X104.55 Y106.96 E7.99709
G1 X104.94 Y107.60 E8.01114
G1 X105.23 Y108.29 E8.02519
G1 X105.40 Y109.01 E8.03917
G1 X105.46 Y109.75 E8.05319
G1 X105.40 Y110.50 E8.06721
G1 X105.23 Y111.22 E8.08120
G1 X104.94 Y111.91 E8.09525
G1 X104.55 Y112.55 E8.10930
G1 X104.07 Y113.11 E8.12328
G1 X103.51 Y113.60 E8.13726
G1 X102.87 Y113.99 E8.15131
G1 X102.18 Y114.27 E8.16536
G1 X101.46 Y114.44 E8.17935
G1 X100.71 Y114.50 E8.19337
G1 X99.97 Y114.44 E8.20739
G1 X99.25 Y114.27 E8.22138
G1 X98.56 Y113.99 E8.23543
G1 X97.92 Y113.60 E8.24948
G1 X97.35 Y113.11 E8.26346
G1 X96.87 Y112.55 E8.27744
G1 X96.48 Y111.91 E8.29149
G1 X96.19 Y111.22 E8.30554
G1 X96.02 Y110.50 E8.31953
G1 X95.96 Y109.75 E8.33355
G1 X96.02 Y109.01 E8.34757
G1 X96.19 Y108.29 E8.36156
G1 X96.48 Y107.60 E8.37561
G1 X96.87 Y106.96 E8.38966
G1 X97.35 Y106.40 E8.40364
G1 X97.92 Y105.91 E8.41762
G1 X98.06 Y105.83 E8.42073
G1 X98.91 Y108.71 E8.47731
G1 X96.42 Y110.56 E8.53562
G1 X96.53 Y110.90 E8.54237
G1 X99.58 Y110.95 E8.59962
G1 X100.49 Y114.00 E8.65942
G1 X100.86 Y114.00 E8.66636
G1 X101.84 Y110.98 E8.72609
G1 X104.88 Y111.01 E8.78331
G1 F2400 E4.28331
G0 F4920 X100.75 Y107.35
G1 F2400 E8.78331
G1 F1620 X98.47 Y105.58 E8.83767
G1 X98.56 Y105.52 E8.83954
G1 X99.25 Y105.24 E8.85359
G1 X99.97 Y105.06 E8.86758
G1 X100.71 Y105.01 E8.88160
G1 X101.46 Y105.06 E8.89562
G1 X102.18 Y105.24 E8.90961
G1 X102.87 Y105.52 E8.92366
G1 X103.06 Y105.64 E8.92796
G1 X100.75 Y107.35 E8.98200
G0 F4920 X100.66 Y107.06
;TYPE:FILL
G1 F1620 X100.88 Y107.03 E8.98615
G0 F4920 X100.10 Y106.63
G1 F1620 X101.70 Y106.43 E9.01641
G0 F4920 X102.52 Y105.82
G1 F1620 X99.54 Y106.19 E9.07281
G0 F4920 X98.98 Y105.76
G1 F1620 X102.03 Y105.38 E9.13056
G1 F2400 E4.63056
G0 F4920 X103.39 Y106.72
G1 F2400 E9.13056
G1 F1620 X104.05 Y106.64 E9.14305
G0 F4920 X104.43 Y107.10
G1 F1620 X103.22 Y107.25 E9.16594
G0 F4920 X103.06 Y107.77
G1 F1620 X104.72 Y107.57 E9.19746
G0 F4920 X104.94 Y108.05
G1 F1620 X102.89 Y108.30 E9.23629
G0 F4920 X102.89 Y108.80
G1 F1620 X105.11 Y108.53 E9.27821
G0 F4920 X105.22 Y109.02
G1 F1620 X103.45 Y109.24 E9.31185
G0 F4920 X104.01 Y109.67
G1 F1620 X105.27 Y109.52 E9.33575
G0 F4920 X105.26 Y110.02
G1 F1620 X104.84 Y110.33 E9.34906
G1 X105.21 Y110.53 E9.35706
G0 F4920 X104.89 Y111.58
G1 F1620 X101.70 Y111.97 E9.41748
G0 F4920 X101.53 Y112.50
G1 F1620 X104.61 Y112.12 E9.47583
G0 F4920 X104.22 Y112.67
G1 F1620 X101.36 Y113.02 E9.52998
G0 F4920 X101.19 Y113.54
G1 F1620 X103.65 Y113.24 E9.57656
G0 F4920 X102.70 Y113.86
G1 F1620 X101.02 Y114.07 E9.60846
G0 F4920 X100.40 Y114.15
G1 F1620 X99.78 Y114.22 E9.62006
G0 F4920 X100.21 Y113.67
G1 F1620 X98.69 Y113.85 E9.64873
G0 F4920 X98.00 Y113.43
G1 F1620 X100.06 Y113.18 E9.68781
G0 F4920 X99.91 Y112.69
G1 F1620 X97.48 Y112.99 E9.73394
G0 F4920 X97.09 Y112.54
G1 F1620 X99.77 Y112.21 E9.78471
G0 F4920 X99.62 Y111.72
G1 F1620 X96.78 Y112.07 E9.83853
G0 F4920 X96.54 Y111.60
G1 F1620 X99.48 Y111.24 E9.89420
G1 F2400 E5.39420
G0 F4920 X101.87 Y111.44
G1 F2400 E9.89420
G1 F1620 X104.06 Y111.18 E9.93566
G1 F2400 E5.43566
G0 F4920 X98.44 Y108.85
G1 F2400 E9.93566
G1 F1620 X96.19 Y109.12 E9.97827
G0 F4920 X96.15 Y109.63
G1 F1620 X97.62 Y109.45 E10.00626
G0 F4920 X96.81 Y110.05
G1 F1620 X96.17 Y110.13 E10.01850
G0 F4920 X96.34 Y111.12
G1 F1620 X96.65 Y111.08 E10.02436
G1 F2400 E5.52436
G0 F4920 X96.30 Y108.60
G1 F2400 E10.02436
G1 F1620 X98.61 Y108.32 E10.06825
G0 F4920 X98.47 Y107.83
G1 F1620 X96.47 Y108.08 E10.10613
G0 F4920 X96.72 Y107.54
G1 F1620 X98.33 Y107.35 E10.13662
G0 F4920 X98.18 Y106.86
G1 F1620 X97.07 Y107.00 E10.15776
G0 F4920 X97.58 Y106.43
G1 F1620 X98.04 Y106.38 E10.16647
G0 F4920 X97.87 Y106.42
G1 F2400 E5.66647
G0 F4920 X94.99 Y101.90
;TYPE:WALL-OUTER
G1 F2400 E10.16647
G1 F1620 X93.83 Y102.89 E10.19516
G1 X92.84 Y104.05 E10.22382
G1 X92.05 Y105.35 E10.25254
G1 X91.47 Y106.76 E10.28122
G1 X91.11 Y108.24 E10.30991
G1 X90.99 Y109.74 E10.33821
G1 X90.99 Y109.76 E10.33860
G1 X91.11 Y111.28 E10.36726
G1 X91.47 Y112.77 E10.39596
G1 X92.06 Y114.17 E10.42463
G1 X92.86 Y115.47 E10.45334
G1 X93.85 Y116.63 E10.48202
G1 X95.01 Y117.62 E10.51068
G1 X96.31 Y118.42 E10.53940
G1 X97.72 Y119.00 E10.56809
G1 X99.20 Y119.35 E10.59677
G1 X100.70 Y119.47 E10.62507
G1 X100.72 Y119.47 E10.62547
G1 X102.24 Y119.35 E10.65413
G1 X103.72 Y118.99 E10.68283
G1 X105.13 Y118.41 E10.71150
G1 X106.43 Y117.61 E10.74020
G1 X107.59 Y116.62 E10.76889
G1 X108.58 Y115.46 E10.79755
G1 X109.38 Y114.16 E10.82627
G1 X109.96 Y112.75 E10.85495
G1 X110.31 Y111.26 E10.88364
G1 X110.43 Y109.76 E10.91194
G1 X110.43 Y109.74 E10.91233
G1 X110.31 Y108.22 E10.94099
G1 X109.95 Y106.74 E10.96969
G1 X109.37 Y105.33 E10.99837
G1 X108.57 Y104.03 E11.02707
G1 X107.58 Y102.87 E11.05575
G1 X106.42 Y101.89 E11.08442
G1 X105.11 Y101.09 E11.11313
G1 X103.71 Y100.51 E11.14182
G1 X102.22 Y100.15 E11.17050
G1 X100.72 Y100.04 E11.19880
G1 X100.70 Y100.04 E11.19920
G1 X99.18 Y100.16 E11.22786
G1 X97.70 Y100.51 E11.25656
G1 X96.29 Y101.10 E11.28523
G1 X94.99 Y101.90 E11.31393
G0 F4920 X94.67 Y101.44
G1 F1620 X96.05 Y100.60 E11.34430
G1 X97.54 Y99.98 E11.37472
G1 X99.10 Y99.60 E11.40500
G1 X100.71 Y99.47 E11.43534
G1 X102.32 Y99.60 E11.46568
G1 X103.89 Y99.98 E11.49597
G1 X105.38 Y100.60 E11.52639
G1 X106.76 Y101.44 E11.55676
G1 X107.98 Y102.49 E11.58706
G1 X109.03 Y103.71 E11.61736
G1 X109.87 Y105.09 E11.64773
G1 X110.49 Y106.58 E11.67815
G1 X110.87 Y108.15 E11.70843
G1 X110.99 Y109.75 E11.73877
G1 X110.87 Y111.36 E11.76911
G1 X110.49 Y112.93 E11.79939
G1 X109.87 Y114.42 E11.82981
G1 X109.03 Y115.80 E11.86018
G1 X107.98 Y117.02 E11.89048
G1 X106.76 Y118.07 E11.92078
G1 X105.38 Y118.91 E11.95115
G1 X103.89 Y119.53 E11.98157
G1 X102.32 Y119.91 E12.01185
G1 X100.71 Y120.03 E12.04219
G1 X99.10 Y119.91 E12.07253
G1 X97.54 Y119.53 E12.10281
G1 X96.05 Y118.91 E12.13323
G1 X94.67 Y118.07 E12.16360
G1 X93.44 Y117.02 E12.19390
G1 X92.40 Y115.80 E12.22420
G1 X91.55 Y114.42 E12.25457
G1 X90.94 Y112.93 E12.28499
G1 X90.56 Y111.36 E12.31527
G1 X90.43 Y109.75 E12.34561
G1 X90.56 Y108.15 E12.37595
G1 X90.94 Y106.58 E12.40623
G1 X91.55 Y105.09 E12.43665
G1 X92.40 Y103.71 E12.46702
G1 X93.44 Y102.49 E12.49732
G1 X94.67 Y101.44 E12.52762
G0 F4920 X94.60 Y101.72
;TYPE:FILL
G1 F1620 X94.56 Y102.04 E12.53152
G1 X94.03 Y102.21 E12.53546
G1 X93.80 Y102.70 E12.53942
G1 X93.31 Y102.91 E12.54339
G1 X93.13 Y103.44 E12.54733
G1 X92.66 Y103.68 E12.55128
G1 X92.44 Y104.17 E12.55528
G1 X92.17 Y104.60 E12.55928
G1 X91.91 Y105.04 E12.56330
G1 X91.67 Y105.52 E12.56749
G1 X91.47 Y106.02 E12.57170
G1 X91.26 Y106.52 E12.57594
G1 X91.10 Y107.07 E12.58056
G1 X90.97 Y107.64 E12.58517
G1 X90.85 Y108.23 E12.58984
G1 X90.78 Y108.87 E12.59503
G1 X90.73 Y109.52 E12.60023
G1 X90.75 Y110.25 E12.60628
G1 X90.81 Y111.02 E12.61240
G1 X90.97 Y111.89 E12.61970
G1 X91.24 Y112.86 E12.62728
G1 X91.71 Y114.04 E12.63753
